apps/16/google-chrome.svg

<?xml version="1.0" encoding="UTF-8"?>
<!-- Created with Inkscape (http://www.inkscape.org/) -->
<svg width="16" height="16" version="1.1" xmlns="http://www.w3.org/2000/svg" xmlns:cc="http://creativecommons.org/ns#" xmlns:dc="http://purl.org/dc/elements/1.1/" xmlns:rdf="http://www.w3.org/1999/02/22-rdf-syntax-ns#">
	<metadata>
		<rdf:RDF>
			<cc:Work rdf:about="">
				<dc:format>image/svg+xml</dc:format>
				<dc:type rdf:resource="http://purl.org/dc/dcmitype/StillImage"/>
				<dc:title/>
			</cc:Work>
		</rdf:RDF>
	</metadata>
	<defs>
		<style
			id="current-color-scheme"
			type="text/css">
			.ColorScheme-Text {
			color:#090d11;
			}
			.ColorScheme-Background{
			color:#ffffff;
			}
		</style>
	</defs>
	<g transform="translate(3446.7 -3647.7)">
		<path d="m-3438.7 3648.7c-1.8905 0-3.585 0.7807-4.8437 2l2.1562 3.7187c0.4811-1.0112 1.4942-1.7187 2.6875-1.7187h6.3125c-1.1242-2.363-3.5215-4-6.3125-4zm-5.75 3.0312c-0.7852 1.1313-1.25 2.4874-1.25 3.9688 0 3.3049 2.295 6.0468 5.375 6.7812l2.2188-3.8437c-0.1953 0.04-0.3867 0.062-0.5938 0.062-1.1095 0-2.0747-0.6046-2.5937-1.5l-3.1563-5.4688zm5.75 1.9688c-1.1046 0-2 0.8954-2 2 0 0.2761 0.055 0.542 0.1563 0.7812l0.125 0.2188c0.346 0.5969 0.9791 1 1.7187 1 0.6742 0 1.2627-0.3327 1.625-0.8438l0.031-0.031c0.026-0.038 0.039-0.085 0.062-0.125 0.1707-0.2945 0.2812-0.635 0.2812-1 0-1.1046-0.8954-2-2-2zm2.2188 0c0.4794 0.5317 0.7812 1.2276 0.7812 2 0 0.5474-0.1502 1.0582-0.4062 1.5-0.035 0.06-0.055 0.1305-0.094 0.1875l-0.031 0.062-3.0313 5.2187c0.1854 0.015 0.3733 0.031 0.5625 0.031 3.866 0 7-3.134 7-7 0-0.6912-0.095-1.3693-0.2812-2h-4.5z" style="fill:currentColor;fill-opacity:0.75;" class="ColorScheme-Text"/>
		<path transform="translate(-3446.7 3647.7)" d="m8-0.09375c-2.1933 0-4.1492 0.9132-5.5938 2.3125a1.1001 1.1001 0 0 0-0.34375 0.71875 1.1001 1.1001 0 0 0-0.6875 0.46875h-0.03125c-0.018 0.026-0.01325 0.06675-0.03125 0.09375-0.021 0.03-0.0415 0.06275-0.0625 0.09375a1.1001 1.1001 0 0 0-0.03125 0.09375c-0.8022 1.2521-1.3125 2.7105-1.3125 4.3125 0 3.8141 2.6578 6.9948 6.2188 7.8438a1.1001 1.1001 0 0 0 0.625-0.03125 1.1001 1.1001 0 0 0 0.03125 0 1.1001 1.1001 0 0 0 0.5625 0.25c0.1823 0.015 0.40505 0.03125 0.65625 0.03125 4.4605 0 8.1251-3.6332 8.125-8.0938 0-0.792-0.12565-1.5739-0.34375-2.3125a1.1001 1.1001 0 0 0-0.375-0.5625 1.1001 1.1001 0 0 0-0.09375-0.59375c-1.3002-2.7329-4.0913-4.6251-7.3125-4.625zm0 1.0938c2.791 0 5.1883 1.637 6.3125 4h-6.3125c-1.1933 0-2.2064 0.70755-2.6875 1.7188l-2.1562-3.7188c1.2587-1.2193 2.9532-2 4.8438-2zm-5.75 3.0312 3.1562 5.4688c0.519 0.8954 1.4842 1.5 2.5938 1.5 0.2071 0 0.39845-0.0225 0.59375-0.0625l-2.2188 3.8438c-3.08-0.7344-5.375-3.4764-5.375-6.7812 0-1.4814 0.4648-2.8374 1.25-3.9688zm5.75 1.9688c1.1046 0 2 0.8954 2 2 0 0.365-0.11055 0.7055-0.28125 1-0.023 0.04-0.0365 0.087-0.0625 0.125l-0.03125 0.03125c-0.3623 0.5111-0.9508 0.84375-1.625 0.84375-0.7396 0-1.3728-0.4031-1.7188-1l-0.125-0.21875c-0.1013-0.2392-0.15625-0.50515-0.15625-0.78125 0-1.1046 0.8954-2 2-2zm2.2188 0h4.5c0.1862 0.6307 0.28125 1.3088 0.28125 2 0 3.866-3.134 7-7 7-0.1892 0-0.3771-0.01625-0.5625-0.03125l3.0312-5.2188 0.03125-0.0625c0.039-0.057 0.05875-0.1275 0.09375-0.1875 0.256-0.4418 0.40625-0.9526 0.40625-1.5 0-0.7724-0.30185-1.4683-0.78125-2z" style="fill:currentColor;fill-opacity:0.5;" class="ColorScheme-Background"/>
	</g>
</svg>

<?xml version="1.0" encoding="UTF-8" standalone="no"?>
<!-- Created with Inkscape (http://www.inkscape.org/) -->

<svg
   xmlns:dc="http://purl.org/dc/elements/1.1/"
   xmlns:cc="http://creativecommons.org/ns#"
   xmlns:rdf="http://www.w3.org/1999/02/22-rdf-syntax-ns#"
   xmlns:svg="http://www.w3.org/2000/svg"
   xmlns="http://www.w3.org/2000/svg"
   xmlns:sodipodi="http://sodipodi.sourceforge.net/DTD/sodipodi-0.dtd"
   xmlns:inkscape="http://www.inkscape.org/namespaces/inkscape"
   width="16.000042"
   height="16.000013"
   id="svg27665"
   version="1.1"
   inkscape:version="0.48.3.1 r9886"
   sodipodi:docname="google-chrome.svg">
  <defs
     id="defs27667" />
  <sodipodi:namedview
     id="base"
     pagecolor="#ffffff"
     bordercolor="#666666"
     borderopacity="1.0"
     inkscape:pageopacity="0.0"
     inkscape:pageshadow="2"
     inkscape:zoom="32"
     inkscape:cx="8.477472"
     inkscape:cy="8.4125737"
     inkscape:document-units="px"
     inkscape:current-layer="layer1"
     showgrid="true"
     inkscape:window-width="1920"
     inkscape:window-height="1033"
     inkscape:window-x="-10"
     inkscape:window-y="25"
     inkscape:window-maximized="1"
     inkscape:snap-bbox="true"
     inkscape:bbox-paths="true"
     inkscape:bbox-nodes="true"
     inkscape:snap-bbox-edge-midpoints="true"
     inkscape:snap-bbox-midpoints="true"
     inkscape:object-paths="true"
     inkscape:snap-intersection-paths="true"
     inkscape:object-nodes="true"
     inkscape:snap-smooth-nodes="true"
     inkscape:snap-midpoints="true"
     inkscape:snap-object-midpoints="true"
     inkscape:snap-center="true"
     inkscape:snap-global="true"
     showguides="false"
     inkscape:guide-bbox="true"
     fit-margin-top="0"
     fit-margin-left="0"
     fit-margin-right="0"
     fit-margin-bottom="0"
     inkscape:showpageshadow="false">
    <sodipodi:guide
       orientation="0,1"
       position="-1440.7659,2520.4813"
       id="guide4179" />
    <sodipodi:guide
       orientation="1,0"
       position="-1438.623,2517.6242"
       id="guide4181" />
    <inkscape:grid
       type="xygrid"
       id="grid3296"
       empspacing="5"
       visible="true"
       enabled="true"
       snapvisiblegridlinesonly="true"
       originx="-91.999833px"
       originy="1268px" />
    <sodipodi:guide
       orientation="1,0"
       position="364.00016,-118"
       id="guide3432" />
    <sodipodi:guide
       orientation="0,1"
       position="364.00015,-118"
       id="guide3434" />
    <sodipodi:guide
       orientation="1,0"
       position="129.03299,-111.9666"
       id="guide4416" />
    <sodipodi:guide
       orientation="1,0"
       position="599.00019,-118"
       id="guide4418" />
    <sodipodi:guide
       orientation="0,1"
       position="364.00016,117"
       id="guide4420" />
  </sodipodi:namedview>
  <metadata
     id="metadata27670">
    <rdf:RDF>
      <cc:Work
         rdf:about="">
        <dc:format>image/svg+xml</dc:format>
        <dc:type
           rdf:resource="http://purl.org/dc/dcmitype/StillImage" />
        <dc:title />
      </cc:Work>
    </rdf:RDF>
  </metadata>
  <g
     inkscape:label="Camada 1"
     inkscape:groupmode="layer"
     id="layer1"
     transform="translate(3446.7083,-3647.6863)">
    <path
       style="fill:#27303a;fill-opacity:0.75328081999999996;fill-rule:nonzero;stroke:none"
       d="m -3438.7083,3648.6863 c -1.8905,0 -3.585,0.7807 -4.8437,2 l 2.1562,3.7187 c 0.4811,-1.0112 1.4942,-1.7187 2.6875,-1.7187 l 6.3125,0 c -1.1242,-2.363 -3.5215,-4 -6.3125,-4 z m -5.75,3.0312 c -0.7852,1.1313 -1.25,2.4874 -1.25,3.9688 0,3.3049 2.295,6.0468 5.375,6.7812 l 2.2188,-3.8437 c -0.1953,0.04 -0.3867,0.062 -0.5938,0.062 -1.1095,0 -2.0747,-0.6046 -2.5937,-1.5 l -3.1563,-5.4688 z m 5.75,1.9688 c -1.1046,0 -2,0.8954 -2,2 0,0.2761 0.055,0.542 0.1563,0.7812 l 0.125,0.2188 c 0.346,0.5969 0.9791,1 1.7187,1 0.6742,0 1.2627,-0.3327 1.625,-0.8438 l 0.031,-0.031 c 0.026,-0.038 0.039,-0.085 0.062,-0.125 0.1707,-0.2945 0.2812,-0.635 0.2812,-1 0,-1.1046 -0.8954,-2 -2,-2 z m 2.2188,0 c 0.4794,0.5317 0.7812,1.2276 0.7812,2 0,0.5474 -0.1502,1.0582 -0.4062,1.5 -0.035,0.06 -0.055,0.1305 -0.094,0.1875 l -0.031,0.062 -3.0313,5.2187 c 0.1854,0.015 0.3733,0.031 0.5625,0.031 3.866,0 7,-3.134 7,-7 0,-0.6912 -0.095,-1.3693 -0.2812,-2 l -4.5,0 z"
       id="path2991"
       inkscape:connector-curvature="0" />
    <path
       style="font-size:medium;font-style:normal;font-variant:normal;font-weight:normal;font-stretch:normal;text-indent:0;text-align:start;text-decoration:none;line-height:normal;letter-spacing:normal;word-spacing:normal;text-transform:none;direction:ltr;block-progression:tb;writing-mode:lr-tb;text-anchor:start;baseline-shift:baseline;color:#000000;fill:#f1f3f5;fill-opacity:0.90288714000000003;fill-rule:nonzero;stroke:none;stroke-width:2;marker:none;visibility:visible;display:inline;overflow:visible;enable-background:accumulate;font-family:Sans;-inkscape-font-specification:Sans"
       d="M 8 -0.09375 C 5.8067 -0.09375 3.85075 0.81945 2.40625 2.21875 A 1.10011 1.10011 0 0 0 2.0625 2.9375 A 1.10011 1.10011 0 0 0 1.375 3.40625 L 1.34375 3.40625 C 1.32575 3.43225 1.3305 3.473 1.3125 3.5 C 1.2915 3.53 1.271 3.56275 1.25 3.59375 A 1.10011 1.10011 0 0 0 1.21875 3.6875 C 0.41655 4.9396 -0.09375 6.398 -0.09375 8 C -0.09375 11.8141 2.5641 14.99475 6.125 15.84375 A 1.10011 1.10011 0 0 0 6.75 15.8125 A 1.10011 1.10011 0 0 0 6.78125 15.8125 A 1.10011 1.10011 0 0 0 7.34375 16.0625 C 7.52605 16.0775 7.7488 16.09375 8 16.09375 C 12.4605 16.09375 16.1251 12.4605 16.125 8 C 16.125 7.208 15.99935 6.4261 15.78125 5.6875 A 1.10011 1.10011 0 0 0 15.40625 5.125 A 1.10011 1.10011 0 0 0 15.3125 4.53125 C 14.0123 1.79835 11.2212 -0.09385 8 -0.09375 z M 8 1 C 10.791 1 13.1883 2.637 14.3125 5 L 8 5 C 6.8067 5 5.7936 5.70755 5.3125 6.71875 L 3.15625 3 C 4.41495 1.7807 6.1095 1 8 1 z M 2.25 4.03125 L 5.40625 9.5 C 5.92525 10.3954 6.8905 11 8 11 C 8.2071 11 8.39845 10.9775 8.59375 10.9375 L 6.375 14.78125 C 3.295 14.04685 1 11.3049 1 8 C 1 6.5186 1.4648 5.16255 2.25 4.03125 z M 8 6 C 9.1046 6 10 6.8954 10 8 C 10 8.365 9.88945 8.7055 9.71875 9 C 9.69575 9.04 9.68225 9.087 9.65625 9.125 L 9.625 9.15625 C 9.2627 9.66735 8.6742 10 8 10 C 7.2604 10 6.62725 9.5969 6.28125 9 L 6.15625 8.78125 C 6.05495 8.54205 6 8.2761 6 8 C 6 6.8954 6.8954 6 8 6 z M 10.21875 6 L 14.71875 6 C 14.90495 6.6307 15 7.3088 15 8 C 15 11.866 11.866 15 8 15 C 7.8108 15 7.6229 14.98375 7.4375 14.96875 L 10.46875 9.75 L 10.5 9.6875 C 10.539 9.6305 10.55875 9.56 10.59375 9.5 C 10.84975 9.0582 11 8.5474 11 8 C 11 7.2276 10.69815 6.5317 10.21875 6 z "
       transform="translate(-3446.7083,3647.6863)"
       id="path3927" />
  </g>
</svg>
